X:1064
T:Balleydesmond No. 1
M:2/4
L:1/8
R:Polka
K:G Maj
|:B|c2B2|A2GA|Bd ed|g2ed|ea ge|dB GA/2B/2|ce dB|A2A:|:d|ea ag/2e/2
|dg gd|ea ab|g2ed|ea ge|dB GA/2B/2|ce dB|A2A:|


